Sources/FrostedUI/Resources/Icons.xcassets/cartRemove20.imageset/cart-remove-20.svg

<svg width="20" height="20" viewBox="0 0 20 20" fill="none" xmlns="http://www.w3.org/2000/svg" data-fui-icon="true">
  <path
    d="M6.66602 14.042C7.65551 14.042 8.45801 14.8444 8.45801 15.834C8.45763 16.8232 7.65528 17.625 6.66602 17.625C5.67707 17.6246 4.87537 16.823 4.875 15.834C4.875 14.8447 5.67684 14.0424 6.66602 14.042ZM14.166 14.042C15.1556 14.042 15.958 14.8444 15.958 15.834C15.9576 16.8232 15.1553 17.625 14.166 17.625C13.177 17.6246 12.3754 16.823 12.375 15.834C12.375 14.8447 13.1768 14.0424 14.166 14.042ZM6.66602 15.542C6.50523 15.5424 6.375 15.6731 6.375 15.834C6.37537 15.9945 6.50546 16.1246 6.66602 16.125C6.82689 16.125 6.95763 15.9948 6.95801 15.834C6.95801 15.6729 6.82712 15.542 6.66602 15.542ZM14.166 15.542C14.0052 15.5424 13.875 15.6731 13.875 15.834C13.8754 15.9946 14.0054 16.1246 14.166 16.125C14.3269 16.125 14.4576 15.9948 14.458 15.834C14.458 15.6729 14.3271 15.542 14.166 15.542ZM1.8916 1.54199C2.84484 1.542 3.66542 2.21477 3.85254 3.14941L5.4668 11.2217C5.55258 11.6499 5.92951 11.9588 6.36621 11.959H14.8623C15.3042 11.9588 15.6834 11.6426 15.7637 11.208L16.9707 4.65625C17.0457 4.24901 17.4365 3.97987 17.8438 4.05469C18.2511 4.12972 18.5203 4.5204 18.4453 4.92773L17.2383 11.4795C17.0269 12.6257 16.0278 13.4588 14.8623 13.459H6.36621C5.21449 13.4588 4.2221 12.645 3.99609 11.5156L2.38184 3.44434C2.33509 3.21062 2.12994 3.042 1.8916 3.04199H1.45801C1.04408 3.04179 0.708206 2.70592 0.708008 2.29199C0.708008 1.8779 1.04396 1.54219 1.45801 1.54199H1.8916ZM12.0098 3.38867C12.3027 3.09578 12.7774 3.09578 13.0703 3.38867C13.3629 3.68159 13.3631 4.15643 13.0703 4.44922L11.6855 5.83398L13.0703 7.21875C13.3629 7.51167 13.3631 7.9865 13.0703 8.2793C12.7775 8.57173 12.3026 8.57179 12.0098 8.2793L10.625 6.89453L9.24023 8.2793C8.94742 8.57171 8.47249 8.57174 8.17969 8.2793C7.88692 7.98653 7.88716 7.51167 8.17969 7.21875L9.56445 5.83398L8.17969 4.44922C7.88692 4.15645 7.88716 3.68159 8.17969 3.38867C8.47258 3.09578 8.94734 3.09578 9.24023 3.38867L10.625 4.77344L12.0098 3.38867Z"
    fill="currentColor"
  />
</svg>

<svg xmlns="http://www.w3.org/2000/svg" width="20" height="20" fill="none" data-fui-icon="true" viewBox="0 0 20 20"><path fill="currentColor" d="M6.666 14.042a1.792 1.792 0 1 1 0 3.584 1.792 1.792 0 0 1 0-3.584m7.5 0a1.792 1.792 0 1 1 0 3.584 1.792 1.792 0 0 1 0-3.584m-7.5 1.5a.292.292 0 1 0 .002.584.292.292 0 0 0-.002-.584m7.5 0a.292.292 0 1 0 .002.584.292.292 0 0 0-.002-.584m-12.274-14a2 2 0 0 1 1.96 1.607l1.615 8.073a.92.92 0 0 0 .9.737h8.495a.92.92 0 0 0 .902-.751l1.207-6.552a.75.75 0 0 1 1.474.272l-1.207 6.552a2.42 2.42 0 0 1-2.376 1.979H6.366a2.42 2.42 0 0 1-2.37-1.943L2.382 3.444a.5.5 0 0 0-.49-.402h-.434a.75.75 0 0 1 0-1.5zM12.01 3.389a.75.75 0 1 1 1.06 1.06l-1.385 1.385 1.385 1.385a.75.75 0 0 1-1.06 1.06l-1.385-1.384L9.24 8.279a.75.75 0 0 1-1.06-1.06l1.384-1.385L8.18 4.449a.75.75 0 0 1 1.06-1.06l1.385 1.384z"/></svg>
